packages/base/Icons/src/Icon/svg/control16.svg

<svg width="16" height="16" viewBox="0 0 16 16" fill="none" xmlns="http://www.w3.org/2000/svg">
<path fill-rule="evenodd" clip-rule="evenodd" d="M10 5H0V4H10V5ZM16 5H13V4H16V5ZM3 13H0V12H3V13ZM16 13H6V12H16V13Z" fill="#455065"/>
<path fill-rule="evenodd" clip-rule="evenodd" d="M11.5 3C10.6716 3 10 3.67157 10 4.5C10 5.32843 10.6716 6 11.5 6C12.3284 6 13 5.32843 13 4.5C13 3.67157 12.3284 3 11.5 3ZM9 4.5C9 3.11929 10.1193 2 11.5 2C12.8807 2 14 3.11929 14 4.5C14 5.88071 12.8807 7 11.5 7C10.1193 7 9 5.88071 9 4.5Z" fill="#455065"/>
<path fill-rule="evenodd" clip-rule="evenodd" d="M4.5 11C3.67157 11 3 11.6716 3 12.5C3 13.3284 3.67157 14 4.5 14C5.32843 14 6 13.3284 6 12.5C6 11.6716 5.32843 11 4.5 11ZM2 12.5C2 11.1193 3.11929 10 4.5 10C5.88071 10 7 11.1193 7 12.5C7 13.8807 5.88071 15 4.5 15C3.11929 15 2 13.8807 2 12.5Z" fill="#455065"/>
</svg>

<svg xmlns="http://www.w3.org/2000/svg" viewBox="0 0 16 16" width="16" height="16">
  <path fill="#455065" d="M10 5H0V4h10v1Zm6 0h-3V4h3v1ZM3 13H0v-1h3v1Zm13 0H6v-1h10v1Z M11.5 3a1.5 1.5 0 1 0 0 3 1.5 1.5 0 0 0 0-3ZM9 4.5a2.5 2.5 0 1 1 5 0 2.5 2.5 0 0 1-5 0ZM4.5 11a1.5 1.5 0 1 0 0 3 1.5 1.5 0 0 0 0-3ZM2 12.5a2.5 2.5 0 1 1 5 0 2.5 2.5 0 0 1-5 0Z" />
</svg>
